!!!!SEGMENT: pl-kk--kk-i-389--009-004_anonim--missa-no-9-graduale-alleluia-ave-maria.krn
!!!cenid: 17xx:2517
!!!COM: Anonim
!!!COM-rismID: pe30004985
!!!CDT:
!!!CNT:
!!!OPR: [Missa] No. 9.
!!!OTL: Graduale/Alleluia. Ave Maria
!!!OMV: 004
!!!PDT:
!!!AGN: Sacred; Mass
!!!YEC: Copyright 2022 Narodowy Instytut Fryderyka Chopina (https://polishscores.org)
!!!YEM: License CC-BY-4.0 (https://creativecommons.org/licenses/by/4.0)
!!!SMS-siglum: PL-Kk
!!!SMS-shelfmark: Kk.I.389
!!!SMS-variant:
!!!SMS-altvar:
!!!SMS-shelfwork: 009-004 M
!!!NIFC-rismSourceID: 1001146182
!!!NIFC-rismChildID: 1001147253
!!!NIFC-islandoraID: pl-kk:6976
!!!URL-pdf-islandora: https://repozytorium.nifc.pl/islandora/object/pl-kk%3A6976/datastream/PDF/view
!!!URL-scan: https://polish.musicsources.pl/pl/lokalizacje/galeria/rekopisy/5999/1 @EN{Scan on Polish Music Sources Website} @PL{Skany w portalu Dziedzictwo Muzyki Polskiej w otwartym dostępie}
!!!IIIF:
!!!ONB-nifc: UWAGA: S – skan 15-16, A – 34-35, T – 53-54, B – 72-73. Części Mszy: Rorate, Kyrie, Gloria, Graduale, Sanctus, Benedictus, Agnus, Dona.
!!!AIN: 1 alto 1 bass 1 soprn 1 tenor
!!!key: F
**kern	**text	**kern	**text	**kern	**text	**kern	**text
*part4	*part4	*part3	*part3	*part2	*part2	*part1	*part1
*staff4	*staff4	*staff3	*staff3	*staff2	*staff2	*staff1	*staff1
*I"Basso.	*	*I"Tenore.	*	*I"Alto.	*	*I"Soprano.	*
*I'B	*	*I'T	*	*I'A	*	*I'S	*
*ICvox	*	*ICvox	*	*ICvox	*	*ICvox	*
*Ibass	*	*Itenor	*	*Ialto	*	*Isoprn	*
*clefF4	*	*clefC4	*	*clefC3	*	*clefC1	*
*k[b-]	*	*k[b-]	*	*k[b-]	*	*k[b-]	*
*F:	*	*F:	*	*F:	*	*F:	*
*M2/2	*	*M2/2	*	*M2/2	*	*M2/2	*
*met(C.)	*	*met(C.)	*	*met(C.)	*	*met(C.)	*
=1	=1	=1	=1	=1	=1	=1	=1
*	*	*	*	*	*	*all\right:global	*
!LO:TX:t=P:problem:przypomnienie partii Sopran i Alto w osobnych linijkach	!	!LO:TX:a:t=6	!	!LO:TX:a:t=1	!	!	!
1r	.	00r	.	1r	.	2r	.
.	.	.	.	.	.	2f/	al-
=2	=2	=2-	=2	=2	=2	=2	=2
*	*	*	*	*	*	*2\right	*
1r	.	.	.	2r	.	2g\	-le-
*	*	*	*	*2\right	*	*	*
.	.	.	.	2c\	al-	2cc\	-lu-
=3	=3	=3-	=3	=3	=3	=3	=3
1r	.	.	.	2d\	-le-	2f/	-ia,
.	.	.	.	2g\	-lu-	[2b-\	al-
=4	=4	=4-	=4	=4	=4	=4	=4
1r	.	.	.	2c\	-ia	2b-\]	.
.	.	.	.	2f\	al-	2a\	-le-
=5	=5	=5-	=5	=5	=5	=5	=5
2r	.	0r	.	2f\	-le-	2.g\	-le-
2C/	A-	.	.	2e\	-lu-	.	.
.	.	.	.	.	.	4g\	-lu-
=6	=6	=6-	=6	=6	=6	=6	=6
2C/	-ve	.	.	2d\	-ia,	2f/	-ia,
*2\right	*	*	*	*	*	*	*
2G\	a-	.	.	2d\	a-	2b-\	a-
=7	=7	=7	=7	=7	=7	=7	=7
2C/	-ve	2r	.	2e\	-ve	2b-\	-ve
2F\	ma-	2F/	A-	2f\	ma-	2a\	ma-
=8	=8	=8	=8	=8	=8	=8	=8
2F\	-ri-	2G/	-ve	2d\	-ri-	2bn\	-ri-
*	*	*2\right	*	*	*	*	*
2E\	-a	2c\	ma-	2e\	-a	2cc\	-a
!LO:PB:g=original	!	!	!	!	!	!	!
=9	=9	=9	=9	=9	=9	=9	=9
2.D\	gra-	2F/	-ri-	2.f\	gra-	2.dd\	gra-
.	.	2B-\	-a	.	.	.	.
4D\	-ti-	.	.	4f\	-ti-	4dd\	-ti-
!	!	!	!	!LO:PB:g=original	!	!	!
=10	=10	=10	=10	=10	=10	=10	=10
2C/	-a	2B-\	gra-	2e\	-a,	2ee\	-a
2F\	ple-	4A\	-ti-	[2cc\	ple-	2r	.
.	.	4A\	-a	.	.	.	.
!	!	!	!	!	!	!LO:PB:g=original	!
=11	=11	=11	=11	=11	=11	=11	=11
1B-	-na	2B-\	ple-	2cc\]	.	1dd	ple-
.	.	2B-\	-na	2b-X\	-na	.	.
=12	=12	=12	=12	=12	=12	=12	=12
2F\	Do-	2c\	Do-	2b-X\	Do-	1cc	-na
4F\	-mi-	4c\	-mi-	4a\	-mi-	.	.
4F\	-nus	4c\	-nus	4a\	-nus	.	.
=13	=13	=13	=13	=13	=13	=13	=13
2G\	te-	2G/	te-	2a\	te-	1b-	Do-
2G\	-cum	2G/	-cum	2g\	-cum	.	.
!	!	!LO:LB:g=original	!	!	!	!	!
=14	=14	=14	=14	=14	=14	=14	=14
2D\	be-	2A\	be-	2g\	be-	2a\	.
2D\	-ne-	2A\	-ne-	2f\	-ne-	4a\	-mi-
.	.	.	.	.	.	4a\	-nus
=15	=15	=15	=15	=15	=15	=15	=15
2BB-/	-dic-	2d\	-dic-	2f\	-dic-	1g	te-
2C/	-ta	2c\	-ta	2e\	-ta	.	.
=16	=16	=16	=16	=16	=16	=16	=16
2FF/	tu	2c\	tu,	2f\	tu,	2a\	-cum
2F\	in	2A\	in	2f\	in	2r	.
!LO:LB:g=original	!	!	!	!	!	!	!
=17	=17	=17	=17	=17	=17	=17	=17
!	!	!	!	!	!	!LO:TX:a:t=1.	!
2G\	my-	2B-\	mu-	2f\	mu-	1r	.
2c\	-li-	2B-\	-li-	2en\	-li-	.	.
=18	=18	=18	=18	=18	=18	=18	=18
2F\	-e-	2A\	-e-	2e\	-e-	2r	.
2B-\	-ri-	2A\	-ri-	2d\	-ri-	2dd\	et
=19	=19	=19	=19	=19	=19	=19	=19
2E\	-bus,	2G/	-bus,	2g\	-bus,	2dd\	be-
2A\	et	2G/	et	2e\	et	2cc\	.
!	!	!	!	!LO:LB:g=original	!	!	!
=20	=20	=20	=20	=20	=20	=20	=20
2D\	be-	2F/	be-	2f\	be-	2cc\	-ne-
2G\	-ne-	2B-\	-ne-	2d\	-ne-	2b-X\	.
=21	=21	=21	=21	=21	=21	=21	=21
2C/	-dic-	2G/	-dic-	2e\	-dic-	2b-\	-dic-
2F\	-tus	4A\	-tus	2f\	-tus	2a\	-tus
.	.	4B-\	.	.	.	.	.
=22	=22	=22	=22	=22	=22	=22	=22
2c\	fru-	2.c\	fru-	2f\	fru-	2.g\	fru-
2C/	-ctus	.	.	2e\	-ctus	.	.
.	.	4c\	-ctus	.	.	4g\	-ctus
!	!	!LO:LB:g=original	!	!	!	!	!
=23	=23	=23	=23	=23	=23	=23	=23
2F\	Ven-	2c\	Ven-	2f\	Ven-	2a\	Ven-
2AA/	-tris	2c\	-tris	2f\	-tris,	2cc\	-tris,
=24	=24	=24	=24	=24	=24	=24	=24
1BB-	tu-	1d	tu-	2d\	tu-	2cc\	tu-
.	.	.	.	2f\	.	2b-X\	.
!	!	!	!	!	!	!LO:LB:g=original	!
=25	=25	=25	=25	=25	=25	=25	=25
2C/	-i,	2G/	-i	2d\	-i,	2b-\	-i
2C/	a-	4A\	al-	2f\	al-	2a\	al-
.	.	4B-\	.	.	.	.	.
=26	=26	=26	=26	=26	=26	=26	=26
2C/	-le-	2.c\	-le-	2e\	.	2.g\	-le-
2C/	-lu-	.	.	2f\	.	.	.
.	.	4c\	-lu-	.	.	4g\	-lu-
=27	=27	=27	=27	=27	=27	=27	=27
0FF	-ia.	0c	-ia.	2f\	-le-	0a	-ia
.	.	.	.	2e\	-lu-	.	.
=28	=28	=28	=28	=28	=28	=28-	=28
.	.	.	.	1f	-ia.	.	.
==	==	==	==	==	==	==	==
*-	*-	*-	*-	*-	*-	*-	*-
!!!system-decoration: [(s1,s2,s3,s4)]
!!!ENC: Filip Voros
!!!END: 2023-11-12
!!!ENC: Leszek Kubiak
!!!END: 2024-01-20
